X:1
T:He Lives Again, 87.87 D
T:P. W. Dixon, 1913
T:He Lives Again, 87.87 D
T:Public Domain
C:P. W. Dixon, 1913
Z:Public Domain
%%score ( 1 2 ) 3
L:1/8
M:3/4
K:Bb
V:1 treble 
V:2 treble 
V:3 bass 
V:1
 [DF]>[DF] | [DB]3 [DA] [DG]>[B,D] | [DF]2 [CE]2 [Ec]>[EB] | [EA]3 [EF] [EG]>[CE] | %4
 [B,D]4 [DF]>[DF] | [DB]3 [DA] [DG]>[B,D] | [CE]2 [=Ec]2 [Ec]>[EB] | [EA]3 [EF] [EG]>[EA] | %8
 [DB]4 [DF]>[DF] | [Fd]3 [Ec] [DB]>[DF] | [EA]2 [EG]2 [Ec]>[EB] | [EA]3 [EF] [EG]>[CE] | %12
 [B,D]4 [DF]>[DF] | [Fd]3 [Ec] [DB]>[DF] | EF [=Ec]2 [Ec]>[EB] | [EA]3 [Ef] [Fdf]>[Ece] | [DBd]4 |] %17
V:2
 x2 | x6 | x6 | x6 | x6 | x6 | x6 | x6 | x6 | x6 | x6 | x6 | x6 | x6 | G2 x4 | x6 | x4 |] %17
V:3
 [B,,B,]>[B,,B,] | [B,,F,]3 [B,,B,] [B,,B,]>[B,,F,] | [F,A,]2 [F,A,]2 [F,A,]>[F,B,] | %3
 [F,C]3 [F,A,] [F,B,]>[F,A,] | [B,,F,]4 [B,,B,]>[B,,B,] | [B,,F,]3 [B,,B,] [B,,B,]>[B,,F,] | %6
 [F,A,]2 [C,G,]2 [C,G,]>[C,C] | [F,C]3 [F,A,] [F,B,]>[F,C] | [B,,B,]4 [B,,B,]>[B,,B,] | %9
 [B,,B,]3 [B,,B,] [B,,F,]>[B,,B,] | [E,B,]2 [E,B,]2 [E,G,]>[E,G,] | [F,C]3 [F,A,] [F,B,]>[F,A,] | %12
 [B,,F,]4 [B,,B,]>[B,,B,] | [B,,B,]3 [B,,B,] [B,,F,]>[B,,B,] | [E,B,][D,=B,] [C,C]2 [C,G,]>[C,C] | %15
 [F,C]3 [F,A,] [F,G,]>[F,A,] | [B,,F,B,]4 |] %17

